X: 1
T: The Fly Fishing
R: reel
M: 4/4
L: 1/8
K: Dmaj
d2-|:"D"dcAF G2 FG|ADDE FG AF|"G"GAFA G2 FG|"D"Addf "A"e2 fe|
     "D"dcAF G2 FG|ADDE FG AF|"G"GAFA G2 FG|"A"Ad-dc "D"d2 de:|
|:"D"f2 af dfaf|"D7"=cfaf "G"B2 BA|GABd gdBd|"A"ceab agfe|
  "D"f2 af dfaf|"D7"=cfaf "G"B2 BA|GABd gdBd|"A"cedc "D"d2 de:|

